usr/share/icons/biglinux-icons-material/22/actions/view-multiple-objects.svg

<svg xmlns="http://www.w3.org/2000/svg" viewBox="0 0 22 22"><path d="M3 4v7h10V4H3zm11 0v7h5V4h-5zM4 5h8v5H4V5zm-1 7v7h16v-7H3zm1 1h14v5H4v-5z" style="fill:currentColor;fill-opacity:1;stroke:none;color:#dedede"/></svg>

<svg xmlns="http://www.w3.org/2000/svg" viewBox="0 0 22 22">
  <defs id="defs3051">
    <style type="text/css" id="current-color-scheme">
      .ColorScheme-Text {
        color:#363636;
      }
      </style>
  </defs>
 <path 
    style="fill:currentColor;fill-opacity:1;stroke:none" 
    d="M 3 4 L 3 11 L 13 11 L 13 4 L 3 4 z M 14 4 L 14 11 L 19 11 L 19 4 L 14 4 z M 4 5 L 12 5 L 12 10 L 4 10 L 4 5 z M 3 12 L 3 19 L 19 19 L 19 12 L 3 12 z M 4 13 L 18 13 L 18 18 L 4 18 L 4 13 z "
	class="ColorScheme-Text"
    />  
</svg>
